public/images/icon-app-photoshop.svg

<svg width="48" height="48" viewBox="0 0 48 48" fill="none" xmlns="http://www.w3.org/2000/svg">
<rect width="48" height="48" fill="#001E36"/>
<path d="M10.8 33.6615V12.5538C10.8 12.4103 10.86 12.3282 11 12.3282C11.34 12.3282 11.66 12.3282 12.12 12.3077C12.6 12.2872 13.1 12.2872 13.64 12.2667C14.18 12.2462 14.76 12.2462 15.38 12.2256C16 12.2051 16.6 12.2051 17.2 12.2051C18.84 12.2051 20.2 12.4103 21.32 12.841C22.32 13.1897 23.24 13.7641 24 14.5231C24.64 15.1795 25.14 15.9795 25.46 16.8615C25.76 17.7231 25.92 18.6051 25.92 19.5282C25.92 21.2923 25.52 22.7487 24.72 23.8974C23.92 25.0462 22.8 25.9077 21.5 26.4C20.14 26.9128 18.64 27.0974 17 27.0974C16.52 27.0974 16.2 27.0974 16 27.0769C15.8 27.0564 15.52 27.0564 15.14 27.0564V33.641C15.16 33.7846 15.06 33.9077 14.92 33.9282C14.9 33.9282 14.88 33.9282 14.84 33.9282H11.04C10.88 33.9282 10.8 33.8462 10.8 33.6615ZM15.16 16.2872V23.1795C15.44 23.2 15.7 23.2205 15.94 23.2205H17C17.78 23.2205 18.56 23.0974 19.3 22.8513C19.94 22.6667 20.5 22.2769 20.94 21.7641C21.36 21.2513 21.56 20.5538 21.56 19.6513C21.58 19.0154 21.42 18.3795 21.1 17.8256C20.76 17.2923 20.28 16.8821 19.7 16.6564C18.96 16.3487 18.16 16.2256 17.34 16.2462C16.82 16.2462 16.36 16.2462 15.98 16.2667C15.58 16.2462 15.3 16.2667 15.16 16.2872Z" fill="#31A8FF"/>
<path d="M38.4 21.9282C37.8 21.6 37.16 21.3744 36.48 21.2308C35.74 21.0667 35 20.9641 34.24 20.9641C33.84 20.9436 33.42 21.0051 33.04 21.1077C32.78 21.1692 32.56 21.3128 32.42 21.5179C32.32 21.6821 32.26 21.8872 32.26 22.0718C32.26 22.2564 32.34 22.441 32.46 22.6051C32.64 22.8308 32.88 23.0154 33.14 23.159C33.6 23.4051 34.08 23.6308 34.56 23.8359C35.64 24.2051 36.68 24.7179 37.64 25.3333C38.3 25.7641 38.84 26.3385 39.22 27.0359C39.54 27.6923 39.7 28.4103 39.68 29.1487C39.7 30.1128 39.42 31.0769 38.9 31.8769C38.34 32.6974 37.56 33.3333 36.66 33.7026C35.68 34.1333 34.48 34.359 33.04 34.359C32.12 34.359 31.22 34.2769 30.32 34.0923C29.62 33.9692 28.92 33.7436 28.28 33.4359C28.14 33.3538 28.04 33.2103 28.06 33.0462V29.4769C28.06 29.4154 28.08 29.3333 28.14 29.2923C28.2 29.2513 28.26 29.2718 28.32 29.3128C29.1 29.7846 29.92 30.1128 30.8 30.318C31.56 30.5231 32.36 30.6256 33.16 30.6256C33.92 30.6256 34.46 30.5231 34.82 30.3385C35.14 30.1949 35.36 29.8462 35.36 29.4769C35.36 29.1897 35.2 28.9231 34.88 28.6564C34.56 28.3897 33.9 28.0821 32.92 27.6923C31.9 27.3231 30.96 26.8308 30.08 26.2154C29.46 25.7641 28.94 25.1692 28.56 24.4718C28.24 23.8154 28.08 23.0974 28.1 22.3795C28.1 21.4974 28.34 20.6564 28.78 19.8974C29.28 19.0769 30.02 18.4205 30.88 18.0103C31.82 17.5179 33 17.2923 34.42 17.2923C35.24 17.2923 36.08 17.3538 36.9 17.4769C37.5 17.559 38.08 17.7231 38.62 17.9487C38.7 17.9692 38.78 18.0513 38.82 18.1333C38.84 18.2154 38.86 18.2974 38.86 18.3795V21.7231C38.86 21.8051 38.82 21.8872 38.76 21.9282C38.58 21.9692 38.48 21.9692 38.4 21.9282Z" fill="#31A8FF"/>
</svg>

<svg xmlns="http://www.w3.org/2000/svg" width="48" height="48" fill="none"><path fill="#001E36" d="M0 0h48v48H0z"/><path fill="#31A8FF" d="M10.8 33.661V12.554c0-.144.06-.226.2-.226.34 0 .66 0 1.12-.02.48-.02.98-.02 1.52-.041.54-.02 1.12-.02 1.74-.041.62-.02 1.22-.02 1.82-.02 1.64 0 3 .204 4.12.635 1 .349 1.92.923 2.68 1.682a6.553 6.553 0 0 1 1.46 2.338c.3.862.46 1.744.46 2.667 0 1.764-.4 3.22-1.2 4.37A6.873 6.873 0 0 1 21.5 26.4c-1.36.513-2.86.697-4.5.697-.48 0-.8 0-1-.02-.2-.02-.48-.02-.86-.02v6.584a.254.254 0 0 1-.22.287h-3.88c-.16 0-.24-.082-.24-.267Zm4.36-17.374v6.893c.28.02.54.04.78.04H17c.78 0 1.56-.123 2.3-.369.64-.184 1.2-.574 1.64-1.087.42-.513.62-1.21.62-2.113a3.444 3.444 0 0 0-.46-1.825 2.917 2.917 0 0 0-1.4-1.17c-.74-.307-1.54-.43-2.36-.41-.52 0-.98 0-1.36.02-.4-.02-.68 0-.82.021ZM38.4 21.928a6.964 6.964 0 0 0-1.92-.697c-.74-.164-1.48-.267-2.24-.267-.4-.02-.82.041-1.2.144-.26.061-.48.205-.62.41-.1.164-.16.37-.16.554 0 .184.08.369.2.533.18.226.42.41.68.554.46.246.94.472 1.42.677 1.08.37 2.12.882 3.08 1.497.66.431 1.2 1.006 1.58 1.703.32.656.48 1.374.46 2.113.02.964-.26 1.928-.78 2.728a5.036 5.036 0 0 1-2.24 1.826c-.98.43-2.18.656-3.62.656-.92 0-1.82-.082-2.72-.267-.7-.123-1.4-.348-2.04-.656-.14-.082-.24-.226-.22-.39v-3.57c0-.06.02-.143.08-.184.06-.04.12-.02.18.02.78.473 1.6.8 2.48 1.006.76.205 1.56.308 2.36.308.76 0 1.3-.103 1.66-.288a.955.955 0 0 0 .54-.861c0-.287-.16-.554-.48-.82-.32-.267-.98-.575-1.96-.965-1.02-.369-1.96-.861-2.84-1.477a5.27 5.27 0 0 1-1.52-1.743 4.495 4.495 0 0 1-.46-2.093c0-.882.24-1.723.68-2.482a4.97 4.97 0 0 1 2.1-1.887c.94-.492 2.12-.718 3.54-.718.82 0 1.66.062 2.48.185.6.082 1.18.246 1.72.472.08.02.16.102.2.184.02.082.04.164.04.247v3.343c0 .082-.04.164-.1.205-.18.041-.28.041-.36 0Z"/></svg>
